source/img/mobile/icon-trust1.svg

<svg width="85" height="70" viewBox="0 0 85 70" fill="none" xmlns="http://www.w3.org/2000/svg">
<circle opacity="0.1" cx="50" cy="35" r="35" fill="#2F80ED"/>
<path d="M35 57H33V47.2C33 46.6477 32.5523 46.2 32 46.2C31.4477 46.2 31 46.6477 31 47.2V57H5V37H13.32C13.8723 37 14.32 36.5523 14.32 36C14.32 35.4477 13.8723 35 13.32 35H4C3.44772 35 3 35.4477 3 36V57H1C0.447715 57 0 57.4477 0 58V60C0 62.7614 2.23858 65 5 65H31C33.7614 65 36 62.7614 36 60V58C36 57.4477 35.5523 57 35 57ZM34 60C34 61.6569 32.6569 63 31 63H29V62C29 61.4477 28.5523 61 28 61C27.4477 61 27 61.4477 27 62V63H9V62C9 61.4477 8.55229 61 8 61C7.44772 61 7 61.4477 7 62V63H5C3.34315 63 2 61.6569 2 60V59H34V60Z" fill="#868686"/>
<path d="M52 11H54C54.5523 11 55 10.5523 55 10C55 9.44772 54.5523 9 54 9H52C50.3431 9 49 10.3431 49 12V13H48C47.4477 13 47 13.4477 47 14C47 14.5523 47.4477 15 48 15H49V18C49 18.5523 49.4477 19 50 19C50.5523 19 51 18.5523 51 18V15H52C52.5523 15 53 14.5523 53 14C53 13.4477 52.5523 13 52 13H51V12C51 11.4477 51.4477 11 52 11Z" fill="#868686"/>
<path d="M57 5H45C43.3431 5 42 6.34315 42 8V10C42 10.5523 42.4477 11 43 11C43.5523 11 44 10.5523 44 10V8C44 7.44772 44.4477 7 45 7H57C57.5523 7 58 7.44772 58 8V20C58 20.5523 57.5523 21 57 21H45C44.4477 21 44 20.5523 44 20V14C44 13.4477 43.5523 13 43 13C42.4477 13 42 13.4477 42 14V20C42 21.6569 43.3431 23 45 23H57C58.6569 23 60 21.6569 60 20V8C60 6.34315 58.6569 5 57 5Z" fill="#868686"/>
<path d="M47 45C47 47.2091 48.7909 49 51 49C53.2091 49 55 47.2091 55 45C55 42.7909 53.2091 41 51 41C48.7909 41 47 42.7909 47 45ZM53 45C53 46.1046 52.1046 47 51 47C49.8954 47 49 46.1046 49 45C49 43.8954 49.8954 43 51 43C52.1046 43 53 43.8954 53 45Z" fill="#868686"/>
<path d="M57 36H45C43.3431 36 42 37.3431 42 39V51C42 52.6569 43.3431 54 45 54H57C58.6569 54 60 52.6569 60 51V49C60 48.4477 59.5523 48 59 48C58.4477 48 58 48.4477 58 49V51C58 51.5523 57.5523 52 57 52H45C44.4477 52 44 51.5523 44 51V39C44 38.4477 44.4477 38 45 38H57C57.5523 38 58 38.4477 58 39V45C58 45.5523 58.4477 46 59 46C59.5523 46 60 45.5523 60 45V39C60 37.3431 58.6569 36 57 36Z" fill="#868686"/>
<path d="M22.47 16.8499C22.6291 16.9485 22.8128 17.0005 23 16.9999C23.1565 16.999 23.3107 16.9613 23.45 16.8899L29.45 13.8899C29.784 13.7188 29.994 13.3751 29.994 12.9999C29.994 12.6247 29.784 12.281 29.45 12.1099L23.45 9.1099C23.1405 8.95394 22.7723 8.96936 22.4769 9.15067C22.1815 9.33198 22.0011 9.65331 22 9.9999V15.9999C21.9993 16.3454 22.177 16.6668 22.47 16.8499ZM24 11.6199L26.76 12.9999L24 14.3799V11.6199Z" fill="#868686"/>
<path d="M25 22C29.9706 22 34 17.9706 34 13C34 8.02944 29.9706 4 25 4C20.0294 4 16 8.02944 16 13C16 17.9706 20.0294 22 25 22ZM25 6C28.866 6 32 9.13401 32 13C32 16.866 28.866 20 25 20C21.134 20 18 16.866 18 13C18 9.13401 21.134 6 25 6Z" fill="#868686"/>
<path d="M35.0001 26.0001C35.3148 26.0001 35.6112 25.8519 35.8001 25.6001L38.8001 21.6001C39.1314 21.1582 39.0419 20.5314 38.6001 20.2001C38.1582 19.8687 37.5314 19.9582 37.2001 20.4001L34.2001 24.4001C33.8687 24.8419 33.9582 25.4687 34.4001 25.8001C34.5732 25.9299 34.7837 26.0001 35.0001 26.0001Z" fill="#868686"/>
<path d="M37.2001 29.6001C37.3889 29.8519 37.6853 30.0001 38.0001 30.0001C38.2164 30.0001 38.427 29.9299 38.6001 29.8001L42.6001 26.8001C43.0419 26.4687 43.1314 25.8419 42.8001 25.4001C42.4687 24.9582 41.8419 24.8687 41.4001 25.2001L37.4001 28.2001C36.9582 28.5314 36.8687 29.1582 37.2001 29.6001Z" fill="#868686"/>
<path d="M47.0001 31.8001C46.9521 31.5322 46.7969 31.2955 46.5705 31.1445C46.344 30.9936 46.0658 30.9414 45.8001 31.0001L40.8001 32.0001C40.2478 32.0553 39.8449 32.5478 39.9001 33.1001C39.9553 33.6524 40.4478 34.0553 41.0001 34.0001H41.2001L46.2001 33.0001C46.468 32.9521 46.7047 32.7969 46.8557 32.5705C47.0066 32.3441 47.0588 32.0659 47.0001 31.8001Z" fill="#868686"/>
<path d="M1 32H13C13.5523 32 14 31.5523 14 31V15C14 14.4477 13.5523 14 13 14H1C0.447715 14 0 14.4477 0 15V31C0 31.5523 0.447715 32 1 32ZM2 16H12V30H2V16Z" fill="#868686"/>
<path d="M9 18H7C6.44772 18 6 18.4477 6 19C6 19.5523 6.44772 20 7 20H9C9.55228 20 10 19.5523 10 19C10 18.4477 9.55228 18 9 18Z" fill="#868686"/>
<path d="M9 22H5C4.44772 22 4 22.4477 4 23C4 23.5523 4.44772 24 5 24H9C9.55228 24 10 23.5523 10 23C10 22.4477 9.55228 22 9 22Z" fill="#868686"/>
<path d="M9 26H5C4.44772 26 4 26.4477 4 27C4 27.5523 4.44772 28 5 28H9C9.55228 28 10 27.5523 10 27C10 26.4477 9.55228 26 9 26Z" fill="#868686"/>
<path d="M34.1201 31.7002C33.9414 31.3894 33.6105 31.1975 33.2521 31.1968C32.8936 31.1961 32.5619 31.3867 32.3821 31.6968C32.2022 32.0069 32.2014 32.3894 32.3801 32.7002L36.7901 40.3302L20.7901 46.3302C20.7901 46.3302 20.7901 46.3302 20.7201 46.3302H20.6401L18.0401 47.8302L16.3101 48.8302C15.8501 49.0962 15.3032 49.1681 14.7901 49.0302C14.2797 48.8924 13.8446 48.558 13.5801 48.1002L11.5801 44.6402C11.0916 43.7005 11.4205 42.5428 12.3301 42.0002L15.7901 40.0002L18.2901 44.3302C18.4694 44.6409 18.8014 44.8317 19.1601 44.8302C19.518 44.8317 19.8495 44.6416 20.0291 44.332C20.2087 44.0223 20.2091 43.6403 20.0301 43.3302L17.4501 38.8702L30.0001 28.5202L30.4101 29.2302C30.6862 29.7107 31.2996 29.8764 31.7801 29.6002C32.2606 29.3241 32.4262 28.7107 32.1501 28.2302L31.1501 26.5002C31.0017 26.2467 30.7494 26.0711 30.4601 26.0202C30.1691 25.9654 29.8688 26.0423 29.6401 26.2302L15.6401 37.7702L11.3801 40.2302C9.80783 41.146 9.05172 43.0075 9.54007 44.7602L8.54007 45.3302C7.48633 45.9354 6.90168 47.1164 7.05941 48.3212C7.21713 49.526 8.08607 50.5168 9.26007 50.8302C9.51455 50.8977 9.7768 50.9313 10.0401 50.9302C10.5661 50.9281 11.0828 50.7903 11.5401 50.5302L12.5401 49.9602C13.0204 50.4565 13.6246 50.8155 14.2901 51.0002C14.6318 51.0958 14.9852 51.143 15.3401 51.1402C16.043 51.1419 16.7335 50.9554 17.3401 50.6002L18.2101 50.1002L20.2101 53.5702C21.0376 55.001 22.8665 55.4929 24.3001 54.6702C24.99 54.2727 25.4935 53.6173 25.6999 52.8482C25.9062 52.0792 25.7983 51.2597 25.4001 50.5702L23.5801 47.4002L38.5801 41.7702C38.8554 41.6667 39.0712 41.4473 39.1701 41.1702C39.2685 40.8966 39.243 40.5936 39.1001 40.3402L34.1201 31.7002ZM10.5001 48.7902C10.2701 48.9232 9.99663 48.9592 9.74007 48.8902C9.48387 48.8237 9.2645 48.6583 9.13007 48.4302C8.99711 48.2002 8.96113 47.9268 9.03007 47.6702C9.09902 47.4123 9.26825 47.1927 9.50007 47.0602L10.3701 46.5602L11.3701 48.2902L10.5001 48.7902ZM23.6601 51.5902C23.793 51.8202 23.829 52.0937 23.7601 52.3502C23.6887 52.6044 23.5198 52.8201 23.2901 52.9502C22.8147 53.2233 22.2081 53.0627 21.9301 52.5902L19.9301 49.1202L21.5901 48.1702H21.6701L23.6601 51.5902Z" fill="#868686"/>
</svg>

<svg width="85" height="70" fill="none" xmlns="http://www.w3.org/2000/svg"><circle opacity=".1" cx="50" cy="35" r="35" fill="#2F80ED"/><path d="M35 57h-2v-9.8a1 1 0 1 0-2 0V57H5V37h8.32a1 1 0 1 0 0-2H4a1 1 0 0 0-1 1v21H1a1 1 0 0 0-1 1v2a5 5 0 0 0 5 5h26a5 5 0 0 0 5-5v-2a1 1 0 0 0-1-1zm-1 3a3 3 0 0 1-3 3h-2v-1a1 1 0 1 0-2 0v1H9v-1a1 1 0 1 0-2 0v1H5a3 3 0 0 1-3-3v-1h32v1zm18-49h2a1 1 0 1 0 0-2h-2a3 3 0 0 0-3 3v1h-1a1 1 0 1 0 0 2h1v3a1 1 0 1 0 2 0v-3h1a1 1 0 1 0 0-2h-1v-1a1 1 0 0 1 1-1z" fill="#868686"/><path d="M57 5H45a3 3 0 0 0-3 3v2a1 1 0 1 0 2 0V8a1 1 0 0 1 1-1h12a1 1 0 0 1 1 1v12a1 1 0 0 1-1 1H45a1 1 0 0 1-1-1v-6a1 1 0 1 0-2 0v6a3 3 0 0 0 3 3h12a3 3 0 0 0 3-3V8a3 3 0 0 0-3-3zM47 45a4 4 0 1 0 8 0 4 4 0 0 0-8 0zm6 0a2 2 0 1 1-4 0 2 2 0 0 1 4 0z" fill="#868686"/><path d="M57 36H45a3 3 0 0 0-3 3v12a3 3 0 0 0 3 3h12a3 3 0 0 0 3-3v-2a1 1 0 1 0-2 0v2a1 1 0 0 1-1 1H45a1 1 0 0 1-1-1V39a1 1 0 0 1 1-1h12a1 1 0 0 1 1 1v6a1 1 0 1 0 2 0v-6a3 3 0 0 0-3-3zM22.47 16.85a1 1 0 0 0 .98.04l6-3a1 1 0 0 0 0-1.78l-6-3A1 1 0 0 0 22 10v6a1 1 0 0 0 .47.85zM24 11.62L26.76 13 24 14.38v-2.76z" fill="#868686"/><path d="M25 22a9 9 0 1 0 0-18 9 9 0 0 0 0 18zm0-16a7 7 0 1 1 0 14 7 7 0 0 1 0-14zm10 20a1 1 0 0 0 .8-.4l3-4a1 1 0 0 0-1.6-1.2l-3 4A1 1 0 0 0 35 26zm2.2 3.6a1 1 0 0 0 1.4.2l4-3a1 1 0 0 0-1.2-1.6l-4 3a1 1 0 0 0-.2 1.4zm9.8 2.2a1 1 0 0 0-1.2-.8l-5 1a1.005 1.005 0 1 0 .2 2h.2l5-1a1 1 0 0 0 .8-1.2zM1 32h12a1 1 0 0 0 1-1V15a1 1 0 0 0-1-1H1a1 1 0 0 0-1 1v16a1 1 0 0 0 1 1zm1-16h10v14H2V16z" fill="#868686"/><path d="M9 18H7a1 1 0 1 0 0 2h2a1 1 0 1 0 0-2zm0 4H5a1 1 0 1 0 0 2h4a1 1 0 1 0 0-2zm0 4H5a1 1 0 1 0 0 2h4a1 1 0 1 0 0-2zm25.12 5.7a1.004 1.004 0 0 0-1.74 1l4.41 7.63-16 6h-.15l-2.6 1.5-1.73 1a2 2 0 0 1-2.73-.73l-2-3.46a2 2 0 0 1 .75-2.64l3.46-2 2.5 4.33a1 1 0 0 0 .87.5 1 1 0 0 0 .87-1.5l-2.58-4.46L30 28.52l.41.71a1.003 1.003 0 1 0 1.74-1l-1-1.73a1 1 0 0 0-.69-.48 1 1 0 0 0-.82.21l-14 11.54-4.26 2.46a4 4 0 0 0-1.84 4.53l-1 .57a3 3 0 0 0 1.5 5.6 3.059 3.059 0 0 0 1.5-.4l1-.57a3.879 3.879 0 0 0 2.8 1.18 3.94 3.94 0 0 0 2-.54l.87-.5 2 3.47a3 3 0 0 0 4.09 1.1 3 3 0 0 0 1.1-4.1l-1.82-3.17 15-5.63a1 1 0 0 0 .52-1.43l-4.98-8.64zM10.5 48.79a1 1 0 0 1-.76.1 1 1 0 0 1-.61-.46 1 1 0 0 1 .37-1.37l.87-.5 1 1.73-.87.5zm13.16 2.8a1 1 0 0 1 .1.76 1 1 0 0 1-.47.6 1 1 0 0 1-1.36-.36l-2-3.47 1.66-.95h.08l1.99 3.42z" fill="#868686"/></svg>
